src/xmb/retrosystem/Nintendo - Pokemon Mini-content.svg

<?xml version="1.0" encoding="UTF-8" standalone="no"?>
<svg
   xmlns:dc="http://purl.org/dc/elements/1.1/"
   xmlns:cc="http://creativecommons.org/ns#"
   xmlns:rdf="http://www.w3.org/1999/02/22-rdf-syntax-ns#"
   xmlns:svg="http://www.w3.org/2000/svg"
   xmlns="http://www.w3.org/2000/svg"
   xmlns:sodipodi="http://sodipodi.sourceforge.net/DTD/sodipodi-0.dtd"
   xmlns:inkscape="http://www.inkscape.org/namespaces/inkscape"
   viewBox="0 0 341.33334 341.33334"
   height="256"
   width="256"
   xml:space="preserve"
   id="svg2"
   version="1.1"
   sodipodi:docname="Nintendo - Pokemon Mini-content.svg"
   inkscape:version="0.92.3 (2405546, 2018-03-11)"><sodipodi:namedview
     pagecolor="#ffffff"
     bordercolor="#666666"
     borderopacity="1"
     objecttolerance="10"
     gridtolerance="10"
     guidetolerance="10"
     inkscape:pageopacity="0"
     inkscape:pageshadow="2"
     inkscape:window-width="1920"
     inkscape:window-height="1001"
     id="namedview48"
     showgrid="false"
     inkscape:pagecheckerboard="true"
     inkscape:zoom="1.3828125"
     inkscape:cx="79.280939"
     inkscape:cy="107.36012"
     inkscape:window-x="-9"
     inkscape:window-y="-9"
     inkscape:window-maximized="1"
     inkscape:current-layer="svg2" /><metadata
     id="metadata8"><rdf:RDF><cc:Work
         rdf:about=""><dc:format>image/svg+xml</dc:format><dc:type
           rdf:resource="http://purl.org/dc/dcmitype/StillImage" /><dc:title /></cc:Work></rdf:RDF></metadata><defs
     id="defs6"><clipPath
       id="clipPath18"
       clipPathUnits="userSpaceOnUse"><path
         id="path16"
         d="M 0,256 H 256 V 0 H 0 Z" /></clipPath><clipPath
       id="clipPath26"
       clipPathUnits="userSpaceOnUse"><path
         id="path24"
         d="M 6,249.014 H 250 V 6.9856 H 6 Z" /></clipPath><clipPath
       id="clipPath44"
       clipPathUnits="userSpaceOnUse"><path
         id="path42"
         d="M 0,256 H 256 V 0 H 0 Z" /></clipPath></defs><path
     inkscape:connector-curvature="0"
     d="M 322.66666,118.70534 H 18.666666 V 108.03867 H 322.66666 Z"
     style="fill:#999999;fill-opacity:1;fill-rule:nonzero;stroke:none;stroke-width:1.33333325"
     id="path36" /><g
     id="g46"
     transform="matrix(1.3333333,0,0,-1.3333333,82.666665,108)"><path
       inkscape:connector-curvature="0"
       d="M 0,0 C 0,0 20,19.983 64,19.983 108,19.983 128,0 128,0 h 52 v 47.958 c 0,0 0,11.99 -12,11.99 -9.795,0 -73.551,4.215 -96.656,5.765 -5.576,0.374 -11.164,0.382 -16.74,0.026 L -36,59.948 c 0,0 -12,0 -12,-11.99 V 0 Z"
       style="fill:#e6e6e6;fill-opacity:1;fill-rule:nonzero;stroke:none"
       id="path48" /></g><g
     id="g50"
     transform="matrix(1.3333333,0,0,-1.3333333,50.666665,77.410003)"><path
       inkscape:connector-curvature="0"
       d="m 0,0 c 0,-2.209 -1.791,-4 -4,-4 -2.209,0 -4,1.791 -4,4 0,2.209 1.791,4 4,4 2.209,0 4,-1.791 4,-4"
       style="fill:#d9d9d9;fill-opacity:1;fill-rule:nonzero;stroke:none"
       id="path52" /></g><g
     id="g54"
     transform="matrix(1.3333333,0,0,-1.3333333,47.999999,77.410003)"><path
       inkscape:connector-curvature="0"
       d="m 0,0 c 0,-1.105 -0.895,-2 -2,-2 -1.105,0 -2,0.895 -2,2 0,1.105 0.895,2 2,2 1.105,0 2,-0.895 2,-2"
       style="fill:#b3b3b3;fill-opacity:1;fill-rule:nonzero;stroke:none"
       id="path56" /></g><g
     id="g58"
     transform="matrix(1.3333333,0,0,-1.3333333,301.33333,77.410003)"><path
       inkscape:connector-curvature="0"
       d="m 0,0 c 0,-2.209 -1.791,-4 -4,-4 -2.209,0 -4,1.791 -4,4 0,2.209 1.791,4 4,4 2.209,0 4,-1.791 4,-4"
       style="fill:#d9d9d9;fill-opacity:1;fill-rule:nonzero;stroke:none"
       id="path60" /></g><g
     id="g62"
     transform="matrix(1.3333333,0,0,-1.3333333,298.66666,77.410003)"><path
       inkscape:connector-curvature="0"
       d="m 0,0 c 0,-1.105 -0.895,-2 -2,-2 -1.105,0 -2,0.895 -2,2 0,1.105 0.895,2 2,2 1.105,0 2,-0.895 2,-2"
       style="fill:#b3b3b3;fill-opacity:1;fill-rule:nonzero;stroke:none"
       id="path64" /></g><g
     id="g66"
     transform="matrix(1.3333333,0,0,-1.3333333,18.666666,118.70494)"><path
       inkscape:connector-curvature="0"
       d="m 0,0 v -128 c 0,0 28,-24 112,-24 84,0 116,24 116,24 V 0 Z"
       style="fill:#e6e6e6;fill-opacity:1;fill-rule:nonzero;stroke:none"
       id="path68" /></g><g
     id="g70"
     transform="matrix(1.3333333,0,0,-1.3333333,285.33333,125.41)"><path
       inkscape:connector-curvature="0"
       d="m 0,0 h -176 c -6.6,0 -12,-5.4 -12,-12 v -72 c 0,-2.2 1.8,-4 4,-4 0,0 32,-20 96,-20 64,0 96,20 96,20 2.2,0 4,1.8 4,4 v 72 C 12,-5.4 6.6,0 0,0"
       style="fill:#cccccc;fill-opacity:1;fill-rule:nonzero;stroke:none"
       id="path72" /></g><g
     id="g74"
     transform="matrix(1.3333333,0,0,-1.3333333,146.66666,296.07666)"><path
       inkscape:connector-curvature="0"
       d="M 0,0 H 32 L 16,-12 Z"
       style="fill:#d9d9d9;fill-opacity:1;fill-rule:nonzero;stroke:none"
       id="path76" /></g><g
     id="g78"
     transform="matrix(1.3333333,0,0,-1.3333333,50.666665,130.74334)"><path
       inkscape:connector-curvature="0"
       d="m 0,0 c 0,0 -8,0 -8,-8 v -72 c 0,0 36,-20 96,-20 60,0 96,20 96,20 v 72 c 0,0 0,8 -8,8 z"
       style="fill:#3096cf;fill-opacity:1;fill-rule:nonzero;stroke:none"
       id="path80" /></g><path
     inkscape:connector-curvature="0"
     d="m 82.666665,118.70534 h -32 v -10.66667 h 32 z"
     style="fill:#003d00;fill-opacity:1;fill-rule:nonzero;stroke:none;stroke-width:1.33333325"
     id="path82" /><path
     inkscape:connector-curvature="0"
     d="m 290.66666,118.70534 h -37.33333 v -10.66667 h 37.33333 z"
     style="fill:#003d00;fill-opacity:1;fill-rule:nonzero;stroke:none;stroke-width:1.33333325"
     id="path84" /><g
     id="g86"
     transform="matrix(1.3333333,0,0,-1.3333333,50.666665,44.038271)"><path
       inkscape:connector-curvature="0"
       d="m 0,0 v -48 h 24 v 40 h 128 v -40 h 28 V 0 Z"
       style="fill:#485915;fill-opacity:1;fill-rule:nonzero;stroke:none"
       id="path88" /></g><path
     inkscape:connector-curvature="0"
     d="M 253.33333,118.70534 H 82.666665 V 81.372003 H 253.33333 Z"
     style="fill:#666666;fill-opacity:1;fill-rule:nonzero;stroke:none;stroke-width:1.33333325"
     id="path90" /><g
     id="g92"
     transform="matrix(1.3333333,0,0,-1.3333333,82.666665,54.704937)"><path
       inkscape:connector-curvature="0"
       d="m 0,0 v -40 c 0,0 20,20 64,20 44,0 64,-20 64,-20 V 0 Z"
       style="fill:#999999;fill-opacity:1;fill-rule:nonzero;stroke:none"
       id="path94" /></g><g
     id="g872"
     transform="matrix(1.9999824,0,0,1.99995,-229.25453,-263.57373)"
     style="fill:#e6e6e6"><g
       transform="matrix(1.3333333,0,0,-1.3333333,161.29535,247.12598)"
       id="g102"
       style="fill:#e6e6e6"><path
         id="path104"
         style="fill:#e6e6e6;fill-opacity:1;fill-rule:nonzero;stroke:none"
         d="M 0,0 14.062,12 V 6.757 L 20.009,12 V 3.946 c 0,0 4.088,7.676 4.336,7.676 0.248,0 9.726,-0.054 9.726,-0.054 L 32.522,8.757 H 26.885 L 26.08,7.243 h 3.159 L 27.381,4.108 H 24.965 L 24.283,2.865 h 11.398 l 0.744,1.189 h -5.699 l 4.398,7.622 h 9.911 L 43.301,8.703 h -5.637 l -0.929,-1.46 h 5.823 L 38.469,0 H 15.735 L 15.858,3.892 11.336,0 11.15,3.946 6.628,0 Z"
         inkscape:connector-curvature="0" /></g><g
       transform="matrix(1.3333333,0,0,-1.3333333,221.34254,231.7025)"
       id="g106"
       style="fill:#e6e6e6"><path
         id="path108"
         style="fill:#e6e6e6;fill-opacity:1;fill-rule:nonzero;stroke:none"
         d="M 0,0 C 0,0 -0.044,0 -0.121,0.001 L -1.215,-2.205 Z"
         inkscape:connector-curvature="0" /></g><g
       transform="matrix(1.3333333,0,0,-1.3333333,233.64934,235.52238)"
       id="g110"
       style="fill:#e6e6e6"><path
         id="path112"
         style="fill:#e6e6e6;fill-opacity:1;fill-rule:nonzero;stroke:none"
         d="m 0,0 1.735,2.973 h -9.912 l -4.398,-7.622 h 5.699 l -0.743,-1.189 h -5.493 l -1.684,-2.865 h 9.964 l 4.089,7.244 H -6.566 L -5.637,0 Z"
         inkscape:connector-curvature="0" /></g></g><path
     style="fill:none;fill-opacity:1;fill-rule:nonzero;stroke:#1a1a1a;stroke-width:1.99999994;stroke-miterlimit:4;stroke-dasharray:none"
     d="M 124.97461 15 C 122.18361 14.99575 119.39151 15.08372 116.60352 15.261719 L 26 21.052734 C 26 21.052734 14 21.052969 14 33.042969 L 14 81 L 38 81 L 38 81.029297 L 14 81.029297 L 14 89.029297 L 14 217.0293 C 14 217.0293 42 241.0293 126 241.0293 C 209.99999 241.0293 242 217.0293 242 217.0293 L 242 89.029297 L 242 81.029297 L 218 81.029297 L 218 81 L 242 81 L 242 33.042969 C 242 33.042969 242 21.052734 230 21.052734 C 220.205 21.052734 156.44874 16.837109 133.34375 15.287109 C 130.55575 15.100109 127.76561 15.00425 124.97461 15 z "
     transform="scale(1.3333334)"
     id="path850" /></svg>

<svg xmlns="http://www.w3.org/2000/svg" xml:space="preserve" width="256" height="256" viewBox="0 0 341.333 341.333"><path d="M322.667 118.705h-304V108.04h304Z" style="fill:#999;fill-opacity:1;fill-rule:nonzero;stroke:none;stroke-width:1.33333325"/><path d="M0 0s20 19.983 64 19.983S128 0 128 0h52v47.958s0 11.99-12 11.99c-9.795 0-73.551 4.215-96.656 5.765-5.576.374-11.164.382-16.74.026L-36 59.948s-12 0-12-11.99V0Z" style="fill:#e6e6e6;fill-opacity:1;fill-rule:nonzero;stroke:none" transform="matrix(1.33333 0 0 -1.33333 82.667 108)"/><path d="M0 0a4 4 0 1 0-8 0 4 4 0 0 0 8 0" style="fill:#d9d9d9;fill-opacity:1;fill-rule:nonzero;stroke:none" transform="matrix(1.33333 0 0 -1.33333 50.667 77.41)"/><path d="M0 0a2 2 0 1 0-3.999-.001A2 2 0 0 0 0 0" style="fill:#b3b3b3;fill-opacity:1;fill-rule:nonzero;stroke:none" transform="matrix(1.33333 0 0 -1.33333 48 77.41)"/><path d="M0 0a4 4 0 1 0-8 0 4 4 0 0 0 8 0" style="fill:#d9d9d9;fill-opacity:1;fill-rule:nonzero;stroke:none" transform="matrix(1.33333 0 0 -1.33333 301.333 77.41)"/><path d="M0 0a2 2 0 1 0-3.999-.001A2 2 0 0 0 0 0" style="fill:#b3b3b3;fill-opacity:1;fill-rule:nonzero;stroke:none" transform="matrix(1.33333 0 0 -1.33333 298.667 77.41)"/><path d="M0 0v-128s28-24 112-24 116 24 116 24V0Z" style="fill:#e6e6e6;fill-opacity:1;fill-rule:nonzero;stroke:none" transform="matrix(1.33333 0 0 -1.33333 18.667 118.705)"/><path d="M0 0h-176c-6.6 0-12-5.4-12-12v-72c0-2.2 1.8-4 4-4 0 0 32-20 96-20S8-88 8-88c2.2 0 4 1.8 4 4v72C12-5.4 6.6 0 0 0" style="fill:#ccc;fill-opacity:1;fill-rule:nonzero;stroke:none" transform="matrix(1.33333 0 0 -1.33333 285.333 125.41)"/><path d="M0 0h32L16-12Z" style="fill:#d9d9d9;fill-opacity:1;fill-rule:nonzero;stroke:none" transform="matrix(1.33333 0 0 -1.33333 146.667 296.077)"/><path d="M0 0s-8 0-8-8v-72s36-20 96-20 96 20 96 20v72s0 8-8 8z" style="fill:#3096cf;fill-opacity:1;fill-rule:nonzero;stroke:none" transform="matrix(1.33333 0 0 -1.33333 50.667 130.743)"/><path d="M82.667 118.705h-32V108.04h32zm208 0h-37.334V108.04h37.334z" style="fill:#003d00;fill-opacity:1;fill-rule:nonzero;stroke:none;stroke-width:1.33333325"/><path d="M0 0v-48h24v40h128v-40h28V0Z" style="fill:#485915;fill-opacity:1;fill-rule:nonzero;stroke:none" transform="matrix(1.33333 0 0 -1.33333 50.667 44.038)"/><path d="M253.333 118.705H82.667V81.372h170.666Z" style="fill:#666;fill-opacity:1;fill-rule:nonzero;stroke:none;stroke-width:1.33333325"/><path d="M0 0v-40s20 20 64 20 64-20 64-20V0Z" style="fill:#999;fill-opacity:1;fill-rule:nonzero;stroke:none" transform="matrix(1.33333 0 0 -1.33333 82.667 54.705)"/><g style="fill:#e6e6e6"><g style="fill:#e6e6e6"><path d="m0 0 14.062 12V6.757L20.009 12V3.946s4.088 7.676 4.336 7.676 9.726-.054 9.726-.054l-1.549-2.811h-5.637l-.805-1.514h3.159l-1.858-3.135h-2.416l-.682-1.243h11.398l.744 1.189h-5.699l4.398 7.622h9.911l-1.734-2.973h-5.637l-.929-1.46h5.823L38.469 0H15.735l.123 3.892L11.336 0l-.186 3.946L6.628 0Z" style="fill:#e6e6e6;fill-opacity:1;fill-rule:nonzero;stroke:none" transform="matrix(2.66664 0 0 -2.6666 93.333 230.666)"/></g><g style="fill:#e6e6e6"><path d="m0 0-.121.001-1.094-2.206Z" style="fill:#e6e6e6;fill-opacity:1;fill-rule:nonzero;stroke:none" transform="matrix(2.66664 0 0 -2.6666 213.427 199.82)"/></g><g style="fill:#e6e6e6"><path d="m0 0 1.735 2.973h-9.912l-4.398-7.622h5.699l-.743-1.189h-5.493l-1.684-2.865h9.964l4.089 7.244h-5.823L-5.637 0Z" style="fill:#e6e6e6;fill-opacity:1;fill-rule:nonzero;stroke:none" transform="matrix(2.66664 0 0 -2.6666 238.04 207.46)"/></g></g><path d="M124.975 15q-4.188-.006-8.371.262L26 21.052s-12 .001-12 11.991V81h24v.03H14v136s28 24 112 24 116-24 116-24v-136h-24V81h24V33.043s0-11.99-12-11.99c-9.795 0-73.551-4.216-96.656-5.766a128 128 0 0 0-8.37-.287z" style="fill:none;fill-opacity:1;fill-rule:nonzero;stroke:#1a1a1a;stroke-width:1.99999994;stroke-miterlimit:4;stroke-dasharray:none" transform="scale(1.33333)"/></svg>
